src/assets/images/icons/community/calendar.svg

<svg xmlns="http://www.w3.org/2000/svg" width="32" height="30" viewBox="0 0 32 30">
  <path fill="#A9A6AF" fill-rule="evenodd" d="M0,1.99161703 C0,0.891677316 0.889261723,0 2.00174332,0 L29.9982567,0 C31.103789,0 32,0.89784041 32,1.99161703 L32,28.008383 C32,29.1083227 31.1107383,30 29.9982567,30 L2.00174332,30 C0.89621101,30 0,29.1021596 0,28.008383 L0,1.99161703 Z M2,7.99874609 L2,27.0012539 C2,27.5613852 2.44616384,28 2.99653482,28 L29.0034652,28 C29.5601869,28 30,27.5528461 30,27.0012539 L30,7.99874609 C30,7.43861485 29.5538362,7 29.0034652,7 L2.99653482,7 C2.43981314,7 2,7.44715386 2,7.99874609 Z M13.5,5 C14.3284271,5 15,4.32842712 15,3.5 C15,2.67157288 14.3284271,2 13.5,2 C12.6715729,2 12,2.67157288 12,3.5 C12,4.32842712 12.6715729,5 13.5,5 Z M8.5,5 C9.32842712,5 10,4.32842712 10,3.5 C10,2.67157288 9.32842712,2 8.5,2 C7.67157288,2 7,2.67157288 7,3.5 C7,4.32842712 7.67157288,5 8.5,5 Z M3.5,5 C4.32842712,5 5,4.32842712 5,3.5 C5,2.67157288 4.32842712,2 3.5,2 C2.67157288,2 2,2.67157288 2,3.5 C2,4.32842712 2.67157288,5 3.5,5 Z M22.88,23 L20.75,23 L20.75,16.19 L18.11,16.19 L18.11,14.585 C18.4800019,14.595 18.8374983,14.5675003 19.1825,14.5025 C19.5275017,14.4374997 19.8374986,14.3225008 20.1125,14.1575 C20.3875014,13.9924992 20.6199991,13.7750014 20.81,13.505 C21.000001,13.2349987 21.1249997,12.900002 21.185,12.5 L22.88,12.5 L22.88,23 Z M11.58,16.745 C11.8100012,16.7650001 12.0549987,16.7650001 12.315,16.745 C12.5750013,16.7249999 12.8174989,16.6675005 13.0425,16.5725 C13.2675012,16.4774995 13.4524993,16.3400009 13.5975,16.16 C13.7425008,15.9799991 13.815,15.7400015 13.815,15.44 C13.815,14.9899977 13.6650015,14.6450012 13.365,14.405 C13.0649985,14.1649988 12.720002,14.045 12.33,14.045 C11.7899973,14.045 11.3825014,14.2224982 11.1075,14.5775 C10.8324987,14.9325018 10.7,15.3799973 10.71,15.92 L8.68500003,15.92 C8.70500013,15.3799973 8.80249915,14.8875022 8.97750003,14.4425 C9.1525009,13.9974978 9.39749845,13.6150016 9.71250003,13.295 C10.0275016,12.9749984 10.4049978,12.7275009 10.845,12.5525 C11.2850022,12.3774991 11.7749973,12.29 12.315,12.29 C12.7350021,12.29 13.1549979,12.3524994 13.575,12.4775 C13.9950021,12.6025006 14.3724984,12.7899987 14.7075,13.04 C15.0425017,13.2900012 15.314999,13.5949982 15.525,13.955 C15.7350011,14.3150018 15.84,14.7299976 15.84,15.2 C15.84,15.7100025 15.7175013,16.159998 15.4725,16.55 C15.2274988,16.9400019 14.8600025,17.2049993 14.37,17.375 C14.9500029,17.5050006 15.4049984,17.7849978 15.735,18.215 C16.0650017,18.6450021 16.23,19.159997 16.23,19.76 C16.23,20.3100027 16.1225011,20.7999978 15.9075,21.23 C15.692499,21.6600021 15.4050018,22.0199985 15.045,22.31 C14.6849982,22.6000014 14.2700024,22.8199992 13.8,22.97 C13.3299977,23.1200007 12.8400026,23.195 12.33,23.195 C11.7399971,23.195 11.2025025,23.1100008 10.7175,22.94 C10.2324976,22.7699991 9.82000173,22.5225016 9.48000003,22.1975 C9.13999833,21.8724984 8.87750095,21.4750023 8.69250003,21.005 C8.5074991,20.5349976 8.41999998,19.995003 8.43000003,19.385 L10.455,19.385 C10.4650001,19.6650014 10.5099996,19.9324987 10.59,20.1875 C10.6700004,20.4425013 10.7849993,20.6624991 10.935,20.8475 C11.0850008,21.0325009 11.2724989,21.1799994 11.4975,21.29 C11.7225012,21.4000005 11.9899985,21.455 12.3,21.455 C12.7800024,21.455 13.1849984,21.3075015 13.515,21.0125 C13.8450017,20.7174985 14.01,20.3150025 14.01,19.805 C14.01,19.404998 13.9325008,19.100001 13.7775,18.89 C13.6224993,18.6799989 13.4250012,18.5275005 13.185,18.4325 C12.9449988,18.3374995 12.6825015,18.2825001 12.3975,18.2675 C12.1124986,18.2524999 11.8400013,18.245 11.58,18.245 L11.58,16.745 Z"/>
</svg>

<svg xmlns="http://www.w3.org/2000/svg" width="32" height="30" viewBox="0 0 32 30"><path fill="#404040" fill-rule="evenodd" d="M0 1.992C0 .892.89 0 2.002 0h27.996A2 2 0 0 1 32 1.992v26.016c0 1.1-.89 1.992-2.002 1.992H2.002A2 2 0 0 1 0 28.008V1.992zm2 6.007V27c0 .56.446.999.997.999h26.006a.994.994 0 0 0 .997-.999V8A.992.992 0 0 0 29.003 7H2.997A.994.994 0 0 0 2 7.999zM13.5 5a1.5 1.5 0 1 0 0-3 1.5 1.5 0 0 0 0 3zm-5 0a1.5 1.5 0 1 0 0-3 1.5 1.5 0 0 0 0 3zm-5 0a1.5 1.5 0 1 0 0-3 1.5 1.5 0 0 0 0 3zm19.38 18h-2.13v-6.81h-2.64v-1.605c.37.01.727-.017 1.073-.083.345-.065.654-.18.93-.345.275-.165.507-.382.697-.652.19-.27.315-.605.375-1.005h1.695V23zm-11.3-6.255c.23.02.475.02.735 0s.502-.077.728-.172c.225-.096.41-.233.555-.413.145-.18.217-.42.217-.72 0-.45-.15-.795-.45-1.035a1.61 1.61 0 0 0-1.035-.36c-.54 0-.947.177-1.223.533-.275.355-.407.802-.397 1.342H8.685c.02-.54.117-1.032.293-1.477.175-.446.42-.828.735-1.148.315-.32.692-.567 1.132-.742.44-.176.93-.263 1.47-.263.42 0 .84.062 1.26.188.42.125.797.312 1.133.562.335.25.607.555.817.915.21.36.315.775.315 1.245 0 .51-.122.96-.367 1.35-.246.39-.613.655-1.103.825.58.13 1.035.41 1.365.84.33.43.495.945.495 1.545 0 .55-.107 1.04-.322 1.47a3.21 3.21 0 0 1-.863 1.08c-.36.29-.775.51-1.245.66-.47.15-.96.225-1.47.225-.59 0-1.127-.085-1.613-.255a3.383 3.383 0 0 1-1.237-.742 3.291 3.291 0 0 1-.787-1.193c-.186-.47-.273-1.01-.263-1.62h2.025c.01.28.055.547.135.802.08.256.195.475.345.66.15.186.337.333.563.443.225.11.492.165.802.165.48 0 .885-.147 1.215-.442.33-.296.495-.698.495-1.208 0-.4-.077-.705-.232-.915a1.333 1.333 0 0 0-.593-.457 2.48 2.48 0 0 0-.787-.166 15.577 15.577 0 0 0-.818-.022v-1.5z"/></svg>
